X: 1
T: String Quartet in D Major opus 17 no 6 mvt 3
C: Franz Joseph Haydn
%%abc-version 2.0
%%abcx-abcm2ps-target-version 5.9.1 (29 Sep 2008)
%%abc-creator hum2abc beta
%%abcx-conversion-date 2021/02/14 14:38:24
%%abc-copyright Copyright (c) 1994, 2000 Center for Computer Assisted Research in the Humanities
%%abc-edited-by Frances Bennion
%%abcx-initial-encoding-date 1997/04/15
%%gracespace 0 6 6
%%humdrum-veritas 153817260
%%humdrum-veritas-data 4267961449
%%linebreak <none>
%%barnumbers 0
L: 1/16
M: 4/4
N: Derived from op17n6-03.krn
Q: "Largo" 1/4=50
%%staves [1 2 3 4]
V: 1
V: 2
V: 3 clef=alto
V: 4 clef=bass
K: G
[V:1]g16- [I:setbarnb2]|
[V:2]zGBA GdcB zEG=F Eede |
[V:3]zB,DC B,BAG zCED CcBc |
[V:4]G,,4 G,,4 G,,4 G,,4 |
[V:1]g8 d8 |
[V:2]zGBA GdcB zFAG FcBA |
[V:3]zB,DC B,BAG zA,CB, A,AGF |
[V:4]G,,4 G,,4 D,4 D,4 |
[V:1]BA/G/G3 F/G/F/G/F/G/ cB/A/A3 ^G/A/G/A/c/A/ |
[V:2]zGBA GBBB zA,CB, A,ccc |
[V:3]zB,DC B,DDD zD,A,G, D,DDD |
[V:4]G,4 G,4 F,4 F,4 |
[V:1]BA/G/G3 F/G/B/G/d/B/ cB/A/A3 ^G/A/c/A/e/c/ |
[V:2]zGBA GBBB zA,CB, A,ccc |
[V:3]zB,DC B,DDD zD,A,G, D,DDD |
[V:4]G,4 G,4 F,4 F,4 |
[V:1]BA/G/G,2 z4 b8 |
[V:2]zGBA GdcB zGBA GdcB |
[V:3]zB,DC B,BAG zB,DC B,BAG |
[V:4]G,4 G,4 G,4 G,4 |
[V:1]a/f/^c/d/D4 f'a a/g/f/g/g4 g'/e'/^c'/g/ |
[V:2]zDAG FAGF zB,GF E^ceg |
[V:3]zA,FE DFED zEED ^CEG^c |
[V:4]F,4 F,4 E,4 A,4 |
[V:1]gf/g/f2 >a2ag/f/ f/e/^d/e/e2 >g2gf/e/ |
[V:2]zFAG Fddd zBBB zGGG |
[V:3]zDFE DDDD zDDD z^CCC |
[V:4]D,4 F,4 G,4 A,4 |
[V:1]e/d/^c/d/d2 >a2ag/f/ f/e/^d/e/b2 >B2c=d |
[V:2]zFFF zAAA zBBB zBBB |
[V:3]zDDD zDDD zDDD zEEE |
[V:4]B,4 F,4 G,4 ^G,4 |
[V:1]a16- |
[V:2]^ccff eedd ccdd cc^GG |
[V:3]EEdd ^cc^GG AAFF EEDD |
[V:4]A,4 z4 A,4 z4 |
[V:1]aadd ^cc=cc BB_BB AA^Gd |
[V:2]AAFF EE^DD EE^CC =DDD^G, |
[V:3]^C4 z2F,F, G,G,E,E, =F,F,B,B, |
[V:4]A,,A,,A,,A,, A,,A,,A,,A,, A,,A,,A,,A,, A,,A,,A,,A,, |
[V:1]^c2>B2 A6 c/B/d/c/ e/d/f/e/g/f/a/g/ |
[V:2]A,4 z12 |
[V:3]A,4 z12 |
[V:4]A,,4 z12 |
[V:1]g6 f/e/d/^c/ a6 g/f/e/^d/ |
[V:2]zEGF E^ccc zFAG FAAA |
[V:3]z^CED CEEE zDFE DFFF |
[V:4]A,4 A,4 F,4 F,4 |
[V:1]e3f/g/ G3F/G/ Fddd2 <d2^c/d/ |
[V:2]zBBB zEEE zDFF zAAA |
[V:3]zDDD z^CCC zDDD zDDD |
[V:4]G,4 A,4 B,4 F,4 |
[V:1]Bbbb2 <g2f/g/ f2a2 b2^c'2 |
[V:2]zBBB zEEE zDzf zgze |
[V:3]zDDD z^CCC zDzD zDzD |
[V:4]G,4 A,4 D,2D,2 D,2D,2 |
[V:1]d'8 f'8 |
[V:2]f8 d'8 |
[V:3]zF,A,G, F,FEF zD,F,E, D,DF^G, |
[V:4]zD,F,E, D,D^CD zB,,D,^C, B,,B,D^G,, |
[V:1]f'4 >A4 e8 |
[V:2]A,4 z12 |
[V:3]A,4 z12 |
[V:4]A,,4 z12 |
[V:1]d[FD][AF][GE] [FD][FA][EG][FD] z[^CE][GE][FD] [CE][GE][FD][CE] |
[V:2]d8 A8 |
[V:3]D,4 z4 A,4 z4 |
[V:4]D,,4 z4 A,,4 z4 |
[V:1]z[FD][AF][EG] [DF][fA][Ge][dF] z[Ge][Bg]>[fA] [fA][Ge][dF][^cE] |
[V:2]D8 G,2z4 A,2 |
[V:3]D4 z4 G,2z4 A,2 |
[V:4]D,4 z4 G,2z4 A,2 |
[V:1]d16- |
[V:2]zDFE DAGF zB,DC B,BAB |
[V:3]zFAG FFED zG,B,A, G,GFG |
[V:4]D,4 D,4 D,4 D,4 |
[V:1]d8 a8 |
[V:2]zDFE DAGF z^CED CGFE |
[V:3]zF,A,G, F,FED zE,G,F, E,ED^C |
[V:4]D,4 D,4 A,,4 A,,4 |
[V:1]fe/d/d3 ^c/d/c/d/c/d/ gf/e/e3 ^d/e/d/e/g/e/ |
[V:2]zDFE DFFF zEGF EGGG |
[V:3]zF,A,G, F,A,A,A, zA,ED A,EEE |
[V:4]D,4 D,4 ^C,4 C,4 |
[V:1]fe/d/d3 ^c/d/f/d/a/f/ gf/e/e3 ^d/e/g/e/b/g/ |
[V:2]zDFE DFFF zEGF EGGG |
[V:3]zF,A,G, F,A,A,A, zA,ED A,EEE |
[V:4]D,4 D,4 ^C,4 C,4 |
[V:1]fe/d/D2 z4 d8 |
[V:2]zFAG FAGF zFAG FAGF |
[V:3]zDFE DFED zDFE DFED |
[V:4]D,4 D,4 C,4 C,4 |
[V:1]^d4- dc'ba gf/e/e2 >^d'2e'g |
[V:2]zFAG FABc zGBA GBBB |
[V:3]z^DFE DFGA zEGF EEEE |
[V:4]B,,4 B,,4 E,4 G,4 |
[V:1]g/f/^e/f/f2 >f'2^d'a gf/=e/e2 >g2gg |
[V:2]zccc zFFF zGBA GBAG |
[V:3]zEEE z^DDD zEGF EGFE |
[V:4]A,4 B,4 E,4 E,4 |
[V:1]g8 ^g4- g=f'e'g |
[V:2]zGBA GBAG zDdc BBcd |
[V:3]zEGF EGFE z^GBA GGAB |
[V:4]E,4 E,4 D,4 D,4 |
[V:1]a^g/a/a2- a/b/c'/b/c'b/a/ =gf2<f2 e'd'f |
[V:2]zAed ccde zAcB AABc |
[V:3]zEcB AABc zDAG FFGA |
[V:4]C,4 C,4 C,4 C,4 |
[V:1]gf/g/g2 >g2bd cB/c/c'2 >a2fc |
[V:2]zGdc BBcd zEcB AFAc |
[V:3]zDBA GGAB zAAG FA,CF |
[V:4]B,,4 B,,4 A,,4 D,4 |
[V:1]cB/c/B2 >d'2d'c'/b/ b/a/^g/a/a2 >c'2c'b/a/ |
[V:2]zBdc Bggg zeee zccc |
[V:3]zGBA GGGG zGGG zFFF |
[V:4]G,4 B,,4 C,4 D,4 |
[V:1]a/g/f/g/g2 >d'2d'c'/b/ b/a/^g/a/e'2 >e2f=g |
[V:2]zBBB zddd zeee zEEE |
[V:3]zGGG zGGG zGGG zAAA |
[V:4]E,4 B,,4 C,4 ^C,4 |
[V:1]d'16- |
[V:2]FFBB AAGG FFGG FF^CC |
[V:3]DDGG FF^CC DDB,B, A,A,G,G, |
[V:4]D,4 z4 D,4 z4 |
[V:1]d'd'gg ff=ff ee_ee dd^cg |
[V:2]DDBB AA^GG AAFF =GGG^C |
[V:3]F,4 z2B,B, CCA,A, _B,B,EE |
[V:4]D,D,D,D, D,D,D,D, D,D,D,D, D,D,D,D, |
[V:1]f2>e2 d6 f/e/g/f/ a/g/b/a/c'/b/d'/c'/ |
[V:2]D4 z12 |
[V:3]D4 z12 |
[V:4]D,4 z12 |
[V:1]c'6 b/a/g/f/ d'6 c'/b/a/^g/ |
[V:2]zAcB Afff zBdc Bddd |
[V:3]zFAG FAAA zGBA GBBB |
[V:4]D,4 D,4 B,,4 B,,4 |
[V:1]a3b/c'/ c3B/c/ Bggg2 <g2f/g/ |
[V:2]zeee zAAA zGBB zddd |
[V:3]zGGG zFFF zGGG zGGG |
[V:4]C,4 D,4 E,4 B,,4 |
[V:1]ee'e'e'2 <c'2b/c'/ b2d'2 e'2f'2 |
[V:2]zeee zAAA zGzb zc'za |
[V:3]zGGG zFFF zGzG zGzG |
[V:4]C,4 D,4 G,2G,2 G,2G,2 |
[V:1]g'16 |
[V:2]b8 b8 |
[V:3]zB,DC B,BAB zG,B,A, G,GB^C |
[V:4]zG,,B,,A,, G,,G,F,G, zE,,G,,F,, E,,E,G,^C,, |
[V:1]g'4 >D4 A8 |
[V:2]D4 z12 |
[V:3]D4 z12 |
[V:4]D,,4 z12 |
[V:1]G[BG][dB][cA] [BG][dB][cA][BG] z[AF][Ac][GB] [AF][Ac][GB][FA] |
[V:2]g8 d8 |
[V:3]G,4 z4 D4 z4 |
[V:4]G,,4 z4 D,4 z4 |
[V:1]z[GB][dB][cA] [GB][bd][ca][gB] z[ac][ec']>[db] [bd][ac][gB][fA] |
[V:2]G8 C2z4 D2 |
[V:3]G4 z4 C2z4 D2 |
[V:4]G,4 z4 C,2z4 D,2 |
[V:1]g16- |
[V:2]GBdc B=fed zced cAGF |
[V:3]GGBA GdcB zEG=F ECB,A, |
[V:4]G,4 G,4 G,4 G,4 |
[V:1]g[BD][d=F][Ec] [DB][dF][Ec][BD] z[cE][Ge][dF] [Ec][CA][B,G][A,^F] |
[V:2]G8 G,4- G,A,B,C |
[V:3]G,4- G,B,CD E2CD EG,G,G, |
[V:4]G,,16- |
[V:1][F4A,4] [B,2G2]z8 z2 |]
[V:2]C4 B,2z8 z2 |]
[V:3]G,6 z8 z2 |]
[V:4]G,,6 z8 z2 |]

